dist/img/skills/languages/php.svg

<svg width="128" height="128" viewBox="0 0 128 128" fill="none" xmlns="http://www.w3.org/2000/svg">
<g opacity="0.32">
<path d="M64.0001 30.72C47.3801 30.72 32.3101 34.2 21.1801 40.01C10.0501 45.82 2.56006 54.19 2.56006 64C2.56006 73.81 10.0501 82.18 21.1801 87.99C32.3101 93.8 47.3801 97.28 64.0001 97.28C80.6201 97.28 95.6901 93.8 106.82 87.99C117.95 82.18 125.44 73.81 125.44 64C125.44 54.19 117.95 45.82 106.82 40.01C95.6901 34.2 80.6201 30.72 64.0001 30.72ZM64.0001 35.84C79.9001 35.84 94.2701 39.23 104.45 44.55C114.63 49.86 120.32 56.84 120.32 64C120.32 71.16 114.63 78.14 104.45 83.45C94.2701 88.77 79.9001 92.16 64.0001 92.16C48.1001 92.16 33.7301 88.77 23.5501 83.45C13.3701 78.14 7.68006 71.16 7.68006 64C7.68006 56.84 13.3701 49.86 23.5501 44.55C33.7301 39.23 48.1001 35.84 64.0001 35.84ZM57.6201 40.96L51.2001 71.68H57.9201L61.1601 56.32H66.5301C68.2401 56.32 69.3801 56.6 69.9101 57.17C70.4301 57.74 70.5401 58.82 70.2401 60.37L67.7901 71.68H74.6101L77.2701 59.45C77.8401 56.52 77.4101 54.37 75.9901 53.06C74.5401 51.73 71.9901 51.2 68.1901 51.2H62.2001L64.3301 40.96H57.6201ZM28.1601 51.2L22.9701 79.36H29.7401L31.0901 71.68H35.3101C44.1301 71.68 48.9301 69.64 50.7201 62.07C52.2601 55.56 48.3201 51.2 41.8101 51.2H28.1601ZM81.9201 51.2L76.7301 79.36H83.5001L84.8501 71.68H89.0701C97.8901 71.68 102.69 69.64 104.48 62.07C106.02 55.56 102.08 51.2 95.5701 51.2H81.9201ZM33.9801 56.32H39.2501C43.6301 56.32 44.5501 58.29 44.3201 60.48C43.7301 66.13 40.2101 66.56 36.4301 66.56H32.0401L33.9801 56.32ZM87.7401 56.32H93.0101C97.3901 56.32 98.3101 58.29 98.0801 60.48C97.4901 66.13 93.9701 66.56 90.1901 66.56H85.8001L87.7401 56.32Z" fill="#F8F8FF"/>
</g>
</svg>

<svg width="128" height="128" fill="none" xmlns="http://www.w3.org/2000/svg"><path d="M64 30.72c-16.62 0-31.69 3.48-42.82 9.29C10.05 45.82 2.56 54.19 2.56 64c0 9.81 7.49 18.18 18.62 23.99 11.13 5.81 26.2 9.29 42.82 9.29s31.69-3.48 42.82-9.29c11.13-5.81 18.62-14.18 18.62-23.99 0-9.81-7.49-18.18-18.62-23.99-11.13-5.81-26.2-9.29-42.82-9.29zm0 5.12c15.9 0 30.27 3.39 40.45 8.71 10.18 5.31 15.87 12.29 15.87 19.45s-5.69 14.14-15.87 19.45C94.27 88.77 79.9 92.16 64 92.16c-15.9 0-30.27-3.39-40.45-8.71C13.37 78.14 7.68 71.16 7.68 64s5.69-14.14 15.87-19.45C33.73 39.23 48.1 35.84 64 35.84zm-6.38 5.12L51.2 71.68h6.72l3.24-15.36h5.37c1.71 0 2.85.28 3.38.85.52.57.63 1.65.33 3.2l-2.45 11.31h6.82l2.66-12.23c.57-2.93.14-5.08-1.28-6.39-1.45-1.33-4-1.86-7.8-1.86H62.2l2.13-10.24h-6.71zM28.16 51.2l-5.19 28.16h6.77l1.35-7.68h4.22c8.82 0 13.62-2.04 15.41-9.61 1.54-6.51-2.4-10.87-8.91-10.87H28.16zm53.76 0l-5.19 28.16h6.77l1.35-7.68h4.22c8.82 0 13.62-2.04 15.41-9.61 1.54-6.51-2.4-10.87-8.91-10.87H81.92zm-47.94 5.12h5.27c4.38 0 5.3 1.97 5.07 4.16-.59 5.65-4.11 6.08-7.89 6.08h-4.39l1.94-10.24zm53.76 0h5.27c4.38 0 5.3 1.97 5.07 4.16-.59 5.65-4.11 6.08-7.89 6.08H85.8l1.94-10.24z" fill="#F8F8FF" opacity=".32"/></svg>
